X: 8178
T: Cooley's
R: hornpipe
M: 4/4
K: Gmajor
ef|gG ~G2 (3EFG DC|(3B,A,G, B,D GB dg|(3ege ce d2 Bd|(3cBA (3BAG Ad^cd|
BG ~G2 (3EFG CG|~E2 CE DGBd|~g3e (3dcB cA|B2 GF G2:|
|:dc|BGFG edBd|gabg egdB|c2 ge dBGB|(3cBA (3BAG Ad^cd|
BG ~G2 (3EFG CG|~E2 CE DGBd|~g3e (3dcB cA|B2 GF G2:|

